X:2225
T:Car-y-Phoosee 
C:Mary Gawne, Peel 
C:Traditional
O:Isle of Man
S:Mary Gawne, Peel 
Z:Clague collection
B:Kiaull Vannin #225
N:See also KV 283,388. 
M:6/8 
K:G 
d|B2G G2G|GGG B2G|G2B d2d|d3-d2 d|B2G G2G | A3-A2 A|F2D DDD|D3-D2 d|
B2G G2G|G3-G2 G|G2A B2G|d3-d2 d|c2A A2A|AFA F2A|A2G GGG|G3-G2||

